dist/release/static/symbols/bridges/unrated.svg

<?xml version="1.0" encoding="UTF-8" standalone="no"?>
<!-- Created with Inkscape (http://www.inkscape.org/) -->
<svg
   xmlns:dc="http://purl.org/dc/elements/1.1/"
   xmlns:cc="http://creativecommons.org/ns#"
   xmlns:rdf="http://www.w3.org/1999/02/22-rdf-syntax-ns#"
   xmlns:svg="http://www.w3.org/2000/svg"
   xmlns="http://www.w3.org/2000/svg"
   xmlns:sodipodi="http://sodipodi.sourceforge.net/DTD/sodipodi-0.dtd"
   xmlns:inkscape="http://www.inkscape.org/namespaces/inkscape"
   width="64px"
   height="64px"
   id="svg2432"
   sodipodi:version="0.32"
   inkscape:version="0.46"
   sodipodi:docname="unrated.svg"
   inkscape:output_extension="org.inkscape.output.svg.inkscape">
  <defs
     id="defs2434">
    <inkscape:perspective
       sodipodi:type="inkscape:persp3d"
       inkscape:vp_x="0 : 32 : 1"
       inkscape:vp_y="0 : 1000 : 0"
       inkscape:vp_z="64 : 32 : 1"
       inkscape:persp3d-origin="32 : 21.333333 : 1"
       id="perspective2440" />
  </defs>
  <sodipodi:namedview
     id="base"
     pagecolor="#ffffff"
     bordercolor="#666666"
     borderopacity="1.0"
     inkscape:pageopacity="0.0"
     inkscape:pageshadow="2"
     inkscape:zoom="5.5"
     inkscape:cx="9.0909091"
     inkscape:cy="32"
     inkscape:current-layer="layer1"
     showgrid="true"
     inkscape:document-units="px"
     inkscape:grid-bbox="true"
     inkscape:window-width="1920"
     inkscape:window-height="1147"
     inkscape:window-x="-4"
     inkscape:window-y="-4" />
  <metadata
     id="metadata2437">
    <rdf:RDF>
      <cc:Work
         rdf:about="">
        <dc:format>image/svg+xml</dc:format>
        <dc:type
           rdf:resource="http://purl.org/dc/dcmitype/StillImage" />
      </cc:Work>
    </rdf:RDF>
  </metadata>
  <g
     id="layer1"
     inkscape:label="Layer 1"
     inkscape:groupmode="layer">
    <path
       id="path2404"
       d="M 1.9999999,32 L 1.9999999,2 L 32,2 L 62,2 L 62,32 L 62,62 L 32,62 L 1.9999999,62 L 1.9999999,32 z M 45.011947,45.764608 L 32.014862,33.058626 L 19.176107,45.580782 C 12.114792,52.46797 6.3373496,58.185658 6.3373496,58.286762 C 6.3373496,58.387866 17.963477,58.470589 32.173189,58.470589 L 58.009031,58.470589 L 45.011947,45.764608 z M 17.906246,20.002576 C 10.955491,13.20704 5.021043,7.6470589 4.7185924,7.6470589 C 4.4161352,7.6470589 4.1686746,19.001854 4.1686746,32.879931 L 4.1686746,58.112811 L 17.356335,45.23545 L 30.543988,32.358094 L 17.906246,20.002576 z M 59.831325,32.183629 L 59.831325,6.6025438 L 46.532636,19.574098 L 33.233939,32.545648 L 46.351912,45.127491 C 53.566789,52.04751 59.551205,57.721795 59.650602,57.737022 C 59.75,57.752248 59.831325,46.253218 59.831325,32.183629 z M 57.66265,5.7132378 C 57.66265,5.6121341 46.036523,5.5294119 31.826809,5.5294119 L 5.9909683,5.5294119 L 18.988053,18.235393 L 31.985137,30.941374 L 44.823893,18.419218 C 51.885207,11.53203 57.66265,5.8143416 57.66265,5.7132378 z"
       style="fill:#000000;fill-opacity:1" />
  </g>
</svg>

<svg xmlns="http://www.w3.org/2000/svg" width="64" height="64"><path d="M2 32V2h60v60H2V32zm43.012 13.765L32.015 33.059 19.176 45.58C12.115 52.468 6.337 58.186 6.337 58.287c0 .1 11.626.184 25.836.184H58.01L45.012 45.765zM17.906 20.003C10.956 13.207 5.021 7.647 4.72 7.647c-.303 0-.55 11.355-.55 25.233v25.233l13.187-12.878 13.188-12.877-12.638-12.355zm41.925 12.18V6.604L46.533 19.574l-13.3 12.972 13.119 12.581c7.215 6.92 13.2 12.595 13.299 12.61.099.015.18-11.484.18-25.553zm-2.168-26.47c0-.1-11.626-.184-25.836-.184H5.99l12.997 12.706 12.997 12.706L44.824 18.42c7.061-6.887 12.839-12.605 12.839-12.706z"/></svg>
